raw-svg/images.svg

<svg viewBox="0 0 24 24" xmlns="http://www.w3.org/2000/svg"><path d="m18.5 3.75h-10a2.75 2.75 0 0 0 -2.75 2.75v.25h-.25a2.75 2.75 0 0 0 -2.75 2.75v8a2.75 2.75 0 0 0 2.75 2.75h10a2.75 2.75 0 0 0 2.75-2.75v-.25h.25a2.75 2.75 0 0 0 2.75-2.75v-8a2.75 2.75 0 0 0 -2.75-2.75zm-11.25 2.75a1.25 1.25 0 0 1 1.25-1.25h10a1.25 1.25 0 0 1 1.25 1.25v6.2l-2.27-1.91a.74.74 0 0 0 -1.05.08l-1.07 1.26-4-3.88a.7.7 0 0 0 -.52-.25.75.75 0 0 0 -.54.26l-3.05 3.63zm1.25 9.25a1.25 1.25 0 0 1 -1.25-1.25v-.3l3.67-4.32 3.46 3.39-2.1 2.48zm8.25 1.75a1.25 1.25 0 0 1 -1.25 1.25h-10a1.25 1.25 0 0 1 -1.25-1.25v-8a1.25 1.25 0 0 1 1.25-1.25h.25v6.25a2.75 2.75 0 0 0 2.75 2.75h8.25zm1.75-1.75h-4.25l2.84-3.34 2.63 2.23a1.23 1.23 0 0 1 -1.22 1.11z"/></svg>

<svg xmlns="http://www.w3.org/2000/svg" viewBox="0 0 24 24"><g id="images"><path d="M18.5,3.75H8.5A2.75,2.75,0,0,0,5.75,6.5v.25H5.5A2.75,2.75,0,0,0,2.75,9.5v8A2.75,2.75,0,0,0,5.5,20.25h10a2.75,2.75,0,0,0,2.75-2.75v-.25h.25a2.75,2.75,0,0,0,2.75-2.75v-8A2.75,2.75,0,0,0,18.5,3.75ZM7.25,6.5A1.25,1.25,0,0,1,8.5,5.25h10A1.25,1.25,0,0,1,19.75,6.5v6.2l-2.27-1.91a.74.74,0,0,0-1.05.08l-1.07,1.26-4-3.88A.7.7,0,0,0,10.84,8a.75.75,0,0,0-.54.26L7.25,11.89ZM8.5,15.75A1.25,1.25,0,0,1,7.25,14.5v-.3l3.67-4.32,3.46,3.39-2.1,2.48Zm8.25,1.75a1.25,1.25,0,0,1-1.25,1.25H5.5A1.25,1.25,0,0,1,4.25,17.5v-8A1.25,1.25,0,0,1,5.5,8.25h.25V14.5A2.75,2.75,0,0,0,8.5,17.25h8.25Zm1.75-1.75H14.25l2.84-3.34,2.63,2.23A1.23,1.23,0,0,1,18.5,15.75Z"/></g></svg>
